assets/logos/white_logo/coleco.svg

<?xml version="1.0" encoding="UTF-8" standalone="no"?>
<svg
   xmlns:dc="http://purl.org/dc/elements/1.1/"
   xmlns:cc="http://creativecommons.org/ns#"
   xmlns:rdf="http://www.w3.org/1999/02/22-rdf-syntax-ns#"
   xmlns:svg="http://www.w3.org/2000/svg"
   xmlns="http://www.w3.org/2000/svg"
   xmlns:sodipodi="http://sodipodi.sourceforge.net/DTD/sodipodi-0.dtd"
   xmlns:inkscape="http://www.inkscape.org/namespaces/inkscape"
   width="500"
   height="200"
   viewBox="0 0 500 200"
   version="1.1"
   id="svg77"
   sodipodi:docname="coleco.svg"
   inkscape:version="0.92.5 (2060ec1f9f, 2020-04-08)">
  <metadata
     id="metadata83">
    <rdf:RDF>
      <cc:Work
         rdf:about="">
        <dc:format>image/svg+xml</dc:format>
        <dc:type
           rdf:resource="http://purl.org/dc/dcmitype/StillImage" />
        <dc:title>syslogo</dc:title>
      </cc:Work>
    </rdf:RDF>
  </metadata>
  <defs
     id="defs81" />
  <sodipodi:namedview
     pagecolor="#ffffff"
     bordercolor="#666666"
     borderopacity="1"
     objecttolerance="10"
     gridtolerance="10"
     guidetolerance="10"
     inkscape:pageopacity="0"
     inkscape:pageshadow="2"
     inkscape:window-width="1366"
     inkscape:window-height="740"
     id="namedview79"
     showgrid="false"
     inkscape:pagecheckerboard="true"
     inkscape:zoom="1.4492866"
     inkscape:cx="201.5"
     inkscape:cy="63.5"
     inkscape:window-x="0"
     inkscape:window-y="0"
     inkscape:window-maximized="1"
     inkscape:current-layer="svg77" />
  <title
     id="title66">syslogo</title>
  <g
     id="Page-1"
     style="fill:none;fill-rule:evenodd;stroke:none;stroke-width:1"
     transform="matrix(1.164366,0,0,1.164366,20.699839,27.975652)">
    <g
       id="syslogo"
       style="fill:#ffffff;fill-rule:nonzero">
      <g
         id="COLECO_VISION_LOGO">
        <path
           d="m 64.5,0 c 2.000045,0 3.713585,0.92308585 4.78125,2.046875 0.558545,0.587906 1.000505,1.1845053 1.296875,1.859375 C 73.408475,1.8671076 77.0245,0 81.5,0 v 0 h 45 c 3.83985,0 6.97941,1.5203485 9.70312,3.15625 0.16538,-0.217332 0.26599,-0.4660784 0.45313,-0.671875 C 137.88917,1.1285472 139.75393,0 142,0 v 0 h 19 c 3.7855,0 7.5,2.7644174 7.5,7 v 0 29 c 0,1.013958 0.28805,1.320371 0.98442,1.78125 0.69633,0.460879 1.89797,0.726065 2.48438,0.71875 v 0 H 181.5 V 0 H 256 V 2.484375 C 258.41237,1.1430998 261.57591,0 265.5,0 v 0 h 43 c 2.18511,0 3.98608,1.2821063 4.96875,2.625 0.30601,0.4181955 0.47909,0.8511622 0.6875,1.28125 C 317.39237,1.7236589 321.38804,0 326,0 v 0 h 42.5 c 6.79525,0 12.28852,2.9447871 15.92187,6.9375 3.63336,3.992713 5.56611,8.946551 5.57813,13.546875 v 0 V 49.5 c 0,4.59402 -2.47632,9.312045 -6.125,13.234375 -3.61516,3.886295 -8.64759,7.012475 -14.375,6.765625 -0.0531,-0.0025 -0.10303,0.003 -0.15625,0 v 0 h -2.28125 c 2.81598,4.62462 3.05028,8.30326 3.40625,11.125 v 0 L 370.5,80.8125 V 119.5 c 0,2.24017 -1.10546,3.91217 -2.40625,5.18748 -1.30079,1.27533 -2.9102,2.31267 -5.09375,2.31267 v 0 h -19.5 c -2.49739,0 -4.45486,-1.37816 -5.625,-2.81267 -1.17014,-1.43452 -1.8605,-2.80436 -1.875,-4.67188 v 0 V 91.5 c 0,-0.977205 -0.36112,-1.559325 -1.03125,-2.109375 C 334.29862,88.840575 333.27591,88.5015 332.5,88.5 v 0 H 320 v 31 c 0,2.71989 -1.69348,4.79287 -3.29688,5.89063 -1.60339,1.09775 -2.99016,1.60952 -4.70312,1.60952 v 0 h -19 c -2.37534,0 -4.30923,-1.34269 -5.70313,-3.31263 -1.83386,1.13283 -4.54903,2.44988 -11.4375,3.29688 v 0 l -0.17187,0.0158 H 233.5 c -3.87788,0 -7.76696,-1.42712 -10.95313,-3.29702 -0.17056,0.24735 -0.32726,0.5025 -0.53125,0.73437 -1.37575,1.56377 -3.58616,2.57675 -6.01562,2.56265 v 0 h -19 c -2.4514,0 -4.5125,-1.43625 -5.57813,-3.01577 -0.61376,0.36234 -1.1853,0.75547 -1.85937,1.07812 -2.31818,1.10964 -4.89404,1.9443 -7.5625,1.93765 v 0 h -73.5 c -2.30535,0 -4.52014,-0.96713 -5.8125,-2.59392 -1.29235,-1.62678 -1.6739,-3.5614 -1.6875,-5.39063 v 0 -29.10935 l -22.453125,35.6875 -0.890625,1.4064 H 52.3125 L 51.4375,125.54688 17.25,68.890625 C 12.26374,68.3572 8.0459115,65.620825 5.125,62.03125 1.8662361,58.02648 0.013339,52.96586 0,48.015625 v 0 V 20.5 C 0,16.470499 1.4626317,11.545355 4.984375,7.375 8.5061185,3.204645 14.244317,0 22,0 v 0 z m 0,3 H 22 C 8.067765,3 3,14.000409 3,20.5 v 0 27.5 c 0.0225,8.34996 6.5219005,18 16,18 v 0 l 35,58.0003 H 76 L 104,79.5 V 119 c 0.0207,2.79098 1.24775,5.0003 4.5,5.0003 v 0 H 182 c 3.93387,0.01 9.1175,-2.73689 11,-5.0003 0,1.76201 0.73119,5.0003 4,5.0003 v 0 h 19 c 3.37119,0.032 5,-2.50274 5,-5.0003 2.81217,2.38346 8.30013,5.0003 12.5,5.0003 v 0 h 42 c 9.96497,-1.22558 9.73439,-2.94821 13,-4.5003 0.86223,2.91331 2.73791,4.5003 4.5,4.5003 v 0 h 19 c 1.3702,0 5,-1.40868 5,-4.5003 v 0 -34 h 15.5 c 3.00965,0.0055 6.5,2.20577 6.5,6 v 0 28 c 0.0111,1.43221 1.6842,4.5003 4.5,4.5003 v 0 H 363 c 1.99651,0 4.5,-2.36676 4.5,-4.5003 v 0 V 81 c -0.51459,-4.079125 -0.36523,-7.85514 -6.5,-14.5 v 0 h 8.5 c 9.13152,0.49264 17.5,-10.315985 17.5,-17 v 0 -29 C 386.98057,13.061849 380.39934,3 368.5,3 V 3 H 326 c -5.79965,0 -11.00064,3.358254 -14,6.5 V 9.5 7 c -0.0994,-1.6135445 -1.27267,-4 -3.5,-4 v 0 h -43 C 258.45616,3 254.51908,7.030786 253,8.5 V 8.5 3 H 184.5 V 41.5 H 172 c -2.43752,0.03041 -6.5,-1.460636 -6.5,-5.5 V 36 7 c 0,-2.280149 -2.22934,-4 -4.5,-4 v 0 h -19 c -2.48736,0 -4.34673,2.493301 -4.5,4.5 C 134.076,5.354538 130.63003,3 126.5,3 v 0 h -45 C 75.40619,3 70.51948,7.551501 68,10 V 10 6 C 68,4.958223 66.7894,3 64.5,3 Z M 68,59.5 c 3.273555,3.52473 8.03201,7 14,7 v 0 l -17,25 -13.5,-25 h 13 c 2.400685,0 3.438305,-1.029755 3.5,-3.5 v 0 z m 2.59375,6.109375 c -0.26912,0.79409 -0.69736,1.54223 -1.34375,2.1875 C 67.932045,69.112545 66.129285,69.5 64.5,69.5 v 0 H 56.53125 L 65.296875,85.734375 76.84375,68.75 c -2.356765,-0.68363 -4.390775,-1.84277 -6.25,-3.140625 z"
           id="Combined-Shape"
           inkscape:connector-curvature="0" />
        <path
           d="m 192.5,65 v 15.5 h -44 c -5.02897,0 -4.74789,5 0,5 0,0 19.33333,0 29,0 22.59359,0 22.58743,33.5 0,33.5 -15.16667,0 -45.5,0 -45.5,0 v -15 c 0,0 29,0 43.5,0 5.20622,0 4.85252,-5 0,-5 -9,0 -27,0 -27,0 -23.21762,0 -23.13547,-34 0,-34 14.66666,0 44,0 44,0 z m 101,0 H 345 c 9.24333,0 17.47868,7.17654 17.5,17 v 37 H 344 V 87 c 0,-5.340605 -3.17642,-6.42353 -7,-6.5 H 312 V 119 H 293.5 Z M 245,80.060425 c -4.9152,0.029 -7,3.11505 -7,6.939575 v 10 c 0,4.15412 3.57185,7 7,7 h 20.5 c 2.43069,0 6.5,-1.64566 6.5,-7 V 87 c 0,-3.363285 -2.04902,-7.086665 -6.5,-7.060563 z M 238,65 h 34.5 c 10.95058,0 18,7.458175 18,16.5 v 20 c 0,14.18216 -12.25313,17.5 -18,17.5 H 238 c -12.9589,0 -18.5,-10.42654 -18.5,-17.5 v -20 C 219.5,69.98456 229.80535,65 238,65 Z m -40.5,0 H 216 v 54 h -18.5 z m -89,0 H 127 v 54 h -18.5 z m -84,0 H 45 l 20,35 23.5,-35 h 17 l -32,54 H 56.691275 Z M 189.5,8 H 248 v 13.5 h -40.5 v 5 H 248 V 40 h -40.5 c 0,4.963599 3.64575,7 7.5,7 h 33 v 14.5 h -42.5 c -9.52193,0 -16.06964,-7.90448 -16.0476,-16.5 z m -47,0 h 18 v 32 c 0,4.597141 3.46464,7.047719 7.5,7 h 19.5 v 14.5 h -28 c -7.94967,0 -17,-3.57341 -17,-16.5 z m 166,-9e-4 H 268 c -11.65265,0 -16.47337,10.718704 -16.5,16.5 v 20 c 0,12.970635 10.67016,17.57585 16.5,17.5 h 40.5 v -15 h -31 c -2.20583,0 -7.5,-1.633451 -7.5,-6.5 v -10.5 c 0,-5.001803 3.76537,-7 7.5,-7 h 31 z m 29,15.061345 c -4.91521,0.02897 -7,3.115052 -7,6.939575 v 10 c 0,4.154126 3.57186,7 7,7 H 358 c 2.43069,0 6.5,-1.645665 6.5,-7 v -10 c 0,-3.363286 -2.04902,-7.086664 -6.5,-7.060563 z m -7,-15.0604465 H 365 c 10.95058,0 18,7.4581995 18,16.5000215 v 20 c 0,14.182145 -12.25313,17.499978 -18,17.499978 h -34.5 c -12.95889,0 -18.5,-10.426538 -18.5,-17.5 v -20 C 312,12.984557 322.30536,7.9999985 330.5,7.9999985 Z M 93.5,23.060425 c -4.915205,0.02898 -7,3.115052 -7,6.939575 v 10 c 0,4.154126 3.571855,7 7,7 H 114 c 2.43069,0 6.5,-1.645665 6.5,-7 V 30 c 0,-3.363286 -2.04901,-7.086664 -6.5,-7.060563 z M 86.5,8 H 121 c 10.95058,0 18,7.458178 18,16.5 v 20 C 139,58.682165 126.74687,62 121,62 H 86.5 c -12.958895,0 -18,-10.42654 -18,-17.5 v -20 C 68.5,12.984559 78.305355,8 86.5,8 Z M 65,8 H 24.5 C 12.847353,8 8.026633,18.718704 8,24.5 v 20 C 8,57.470635 18.670156,62.07585 24.5,62 H 65 V 47 H 33.5 C 31.294166,47 26,45.366549 26,40.5 V 30 c 0,-5.001803 3.765369,-7 7.5,-7 H 65 Z"
           id="Shape"
           inkscape:connector-curvature="0" />
      </g>
      <g
         id="Group-9"
         transform="translate(390)">
        <polygon
           id="Path"
           points="3.1025641,6.5 2.1153846,6.5 2.1153846,0.96808511 0,0.96808511 0,0 5.5,0 5.5,0.96808511 3.1025641,0.96808511 " />
        <polygon
           id="polygon72"
           points="12.031915,6.5 12.031915,0.96808511 10.37234,6.5 9.4042553,6.5 7.606383,0.96808511 7.606383,6.5 6.5,6.5 6.5,3.0708296e-16 8.1595745,3.0708296e-16 9.8191489,5.2553192 11.478723,0 13,0 13,6.5 " />
      </g>
    </g>
  </g>
</svg>

<?xml version="1.0" encoding="UTF-8"?>
<svg width="403px" height="127px" viewBox="0 0 403 127" version="1.1" xmlns="http://www.w3.org/2000/svg" xmlns:xlink="http://www.w3.org/1999/xlink">
    <title>syslogo</title>
    <g id="Page-1" stroke="none" stroke-width="1" fill="none" fill-rule="evenodd">
        <g id="syslogo" fill="#FFFFFF" fill-rule="nonzero">
            <g id="COLECO_VISION_LOGO">
                <path d="M64.5,-5.54223334e-13 C66.500045,-5.54223334e-13 68.213585,0.92308585 69.28125,2.046875 C69.839795,2.634781 70.281755,3.23138025 70.578125,3.90625 C73.408475,1.8671076 77.0245,-5.54223334e-13 81.5,-5.54223334e-13 L81.5,-5.54223334e-13 L126.5,-5.54223334e-13 C130.339855,-5.54223334e-13 133.479405,1.52034855 136.203125,3.15625 C136.368505,2.93891795 136.46911,2.69017155 136.65625,2.484375 C137.889175,1.1285472 139.75393,-5.54223334e-13 142,-5.54223334e-13 L142,-5.54223334e-13 L161,-5.54223334e-13 C164.785505,-5.54223334e-13 168.5,2.7644174 168.5,7 L168.5,7 L168.5,36 C168.5,37.013958 168.78805,37.320371 169.484425,37.78125 C170.18075,38.242129 171.38239,38.507315 171.9688,38.5 L171.9688,38.5 L181.5,38.5 L181.5,-5.54223334e-13 L256,-5.54223334e-13 L256,2.484375 C258.412365,1.1430998 261.57591,-5.54223334e-13 265.5,-5.54223334e-13 L265.5,-5.54223334e-13 L308.5,-5.54223334e-13 C310.685105,-5.54223334e-13 312.48608,1.2821063 313.46875,2.625 C313.774765,3.0431955 313.94784,3.47616215 314.15625,3.90625 C317.39237,1.7236589 321.38804,-5.54223334e-13 326,-5.54223334e-13 L326,-5.54223334e-13 L368.5,-5.54223334e-13 C375.295255,-5.54223334e-13 380.788515,2.94478705 384.421875,6.9375 C388.055235,10.930213 389.98798,15.884051 390,20.484375 L390,20.484375 L390,49.5 C390,54.09402 387.523675,58.812045 383.875,62.734375 C380.259845,66.62067 375.227415,69.74685 369.5,69.5 C369.446895,69.4975 369.396975,69.503 369.34375,69.5 L369.34375,69.5 L367.0625,69.5 C369.87848,74.12462 370.11278,77.80326 370.46875,80.625 L370.46875,80.625 L370.5,80.8125 L370.5,119.5 C370.5,121.740165 369.394535,123.412165 368.09375,124.687475 C366.792965,125.96281 365.183555,127.000148 363,127.000148 L363,127.000148 L343.5,127.000148 C341.00261,127.000148 339.04514,125.621995 337.875,124.187475 C336.70486,122.752955 336.0145,121.383115 336,119.5156 L336,119.5156 L336,91.5 C336,90.522795 335.63888,89.940675 334.96875,89.390625 C334.29862,88.840575 333.275905,88.5015 332.5,88.5 L332.5,88.5 L320,88.5 L320,119.5 C320,122.219885 318.30652,124.292865 316.703125,125.390625 C315.09973,126.488385 313.712965,127.000148 312,127.000148 L312,127.000148 L293,127.000148 C290.62466,127.000148 288.69077,125.65746 287.296875,123.687525 C285.46301,124.82035 282.74784,126.1374 275.859375,126.9844 L275.859375,126.9844 L275.6875,127.000148 L233.5,127.000148 C229.62212,127.000148 225.73304,125.573025 222.546875,123.703125 C222.376315,123.95048 222.219615,124.20563 222.015625,124.4375 C220.63987,126.00127 218.429465,127.01425 216,127.000148 L216,127.000148 L197,127.000148 C194.548605,127.000148 192.4875,125.563895 191.421875,123.984375 C190.80811,124.346715 190.236565,124.739845 189.5625,125.0625 C187.24432,126.17214 184.668465,127.0068 182,127.000148 L182,127.000148 L108.5,127.000148 C106.19465,127.000148 103.979855,126.033025 102.6875,124.406225 C101.395145,122.77945 101.0136,120.84483 101,119.0156 L101,119.0156 L101,89.90625 L78.546875,125.59375 L77.65625,127.000148 L52.3125,127.000148 L51.4375,125.546875 L17.25,68.890625 C12.26374,68.3572 8.0459115,65.620825 5.125,62.03125 C1.86623615,58.02648 0.013339,52.96586 0,48.015625 L0,48.015625 L0,20.5 C0,16.4704995 1.46263165,11.545355 4.984375,7.375 C8.5061185,3.20464495 14.244317,-5.54223334e-13 22,-5.54223334e-13 L22,-5.54223334e-13 Z M64.5,3 L22,3 C8.067765,3 3,14.000409 3,20.5 L3,20.5 L3,48 C3.0224997,56.34996 9.5219005,66 19,66 L19,66 L54,124.000305 L76,124.000305 L104,79.5 L104,119 C104.02071,121.79098 105.247755,124.000305 108.5,124.000305 L108.5,124.000305 L182,124.000305 C185.933875,124.009995 191.117505,121.263415 193,119 C193,120.76201 193.73119,124.000305 197,124.000305 L197,124.000305 L216,124.000305 C219.37119,124.032285 221,121.497555 221,119 C223.812175,121.38346 229.300135,124.000305 233.5,124.000305 L233.5,124.000305 L275.5,124.000305 C285.464975,122.774715 285.23439,121.052085 288.5,119.5 C289.36223,122.41331 291.237915,124.000305 293,124.000305 L293,124.000305 L312,124.000305 C313.370205,124.000305 317,122.591615 317,119.5 L317,119.5 L317,85.5 L332.5,85.5 C335.509655,85.505535 339,87.70577 339,91.5 L339,91.5 L339,119.5 C339.011135,120.93221 340.6842,124.000305 343.5,124.000305 L343.5,124.000305 L363,124.000305 C364.99651,124.000305 367.5,121.63354 367.5,119.5 L367.5,119.5 L367.5,81 C366.985405,76.920875 367.134775,73.14486 361,66.5 L361,66.5 L369.5,66.5 C378.631525,66.99264 387,56.184015 387,49.5 L387,49.5 L387,20.5 C386.980565,13.0618495 380.399345,3 368.5,3 L368.5,3 L326,3 C320.20035,3 314.99936,6.358254 312,9.5 L312,9.5 L312,7 C311.900645,5.3864555 310.72733,3 308.5,3 L308.5,3 L265.5,3 C258.456165,3 254.519085,7.030786 253,8.5 L253,8.5 L253,3 L184.5,3 L184.5,41.5 L172,41.5 C169.562485,41.530407 165.5,40.039364 165.5,36 L165.5,36 L165.5,7 C165.5,4.719851 163.27066,3 161,3 L161,3 L142,3 C139.51264,3 137.65327,5.493301 137.5,7.5 C134.076005,5.354538 130.630035,3 126.5,3 L126.5,3 L81.5,3 C75.40619,3 70.51948,7.551501 68,10 L68,10 L68,6 C68,4.958223 66.7894,3 64.5,3 L64.5,3 Z M68,59.5 C71.273555,63.02473 76.03201,66.5 82,66.5 L82,66.5 L65,91.5 L51.5,66.5 L64.5,66.5 C66.900685,66.5 67.938305,65.470245 68,63 L68,63 Z M70.59375,65.609375 C70.32463,66.403465 69.89639,67.151605 69.25,67.796875 C67.932045,69.112545 66.129285,69.5 64.5,69.5 L64.5,69.5 L56.53125,69.5 L65.296875,85.734375 L76.84375,68.75 C74.486985,68.06637 72.452975,66.90723 70.59375,65.609375 Z" id="Combined-Shape"></path>
                <path d="M192.5,65 L192.5,80.5 L148.5,80.5 C143.47103,80.5 143.752115,85.5 148.5,85.5 C148.5,85.5 167.833335,85.5 177.5,85.5 C200.093595,85.5 200.087435,119 177.5,119 C162.333335,119 132,119 132,119 L132,104 C132,104 161,104 175.5,104 C180.706225,104 180.35252,99 175.5,99 C166.5,99 148.5,99 148.5,99 C125.28238,99 125.36453,65 148.5,65 C163.166665,65 192.5,65 192.5,65 Z M293.5,65 L345,65 C354.243325,65 362.47868,72.17654 362.5,82 L362.5,119 L344,119 L344,87 C344,81.659395 340.82358,80.57647 337,80.5 L312,80.5 L312,119 L293.5,119 L293.5,65 Z M245,80.060425 C240.084795,80.089425 238,83.175475 238,87 L238,97 C238,101.154125 241.571855,104 245,104 L265.5,104 C267.93069,104 272,102.354335 272,97 L272,87 C272,83.636715 269.950985,79.913335 265.5,79.9394371 L245,80.060425 Z M238,65 L272.5,65 C283.45058,65 290.5,72.458175 290.5,81.5 L290.5,101.5 C290.5,115.682165 278.246865,119 272.5,119 L238,119 C225.041105,119 219.5,108.57346 219.5,101.5 L219.5,81.5 C219.5,69.98456 229.805355,65 238,65 Z M197.5,65 L216,65 L216,119 L197.5,119 L197.5,65 Z M108.5,65 L127,65 L127,119 L108.5,119 L108.5,65 Z M24.5,65 L45,65 L65,100 L88.5,65 L105.5,65 L73.5,119 L56.691275,119 L24.5,65 Z M189.5,8 L248,8 L248,21.5 L207.5,21.5 L207.5,26.5 L248,26.5 L248,40 L207.5,40 C207.5,44.963599 211.145755,47 215,47 L248,47 L248,61.5 L205.5,61.5 C195.978075,61.5 189.430365,53.59552 189.452399,45 L189.5,8 Z M142.5,8 L160.5,8 L160.5,40 C160.5,44.5971405 163.96464,47.0477195 168,47 L187.5,47 L187.5,61.5 L159.5,61.5 C151.550335,61.5 142.5,57.92659 142.5,45 L142.5,8 Z M308.5,7.9991 L268,7.9991 C256.347355,7.9991 251.526635,18.7178045 251.5,24.4991 L251.5,44.4991 C251.5,57.469735 262.170155,62.07495 268,61.9991 L308.5,61.9991 L308.5,46.9991 L277.5,46.9991 C275.294165,46.9991 270,45.365649 270,40.4991 L270,29.9991 C270,24.997297 273.76537,22.9991 277.5,22.9991 L308.5,22.9991 L308.5,7.9991 Z M337.5,23.0604455 C332.584795,23.0894205 330.5,26.175497 330.5,30.00002 L330.5,40.00002 C330.5,44.154146 334.071855,47.00002 337.5,47.00002 L358,47.00002 C360.43069,47.00002 364.5,45.354355 364.5,40.00002 L364.5,30.00002 C364.5,26.636734 362.450985,22.913356 358,22.9394571 L337.5,23.0604455 Z M330.5,7.9999985 L365,7.9999985 C375.95058,7.9999985 383,15.458198 383,24.50002 L383,44.50002 C383,58.682165 370.746865,61.9999985 365,61.9999985 L330.5,61.9999985 C317.541105,61.9999985 312,51.57346 312,44.4999985 L312,24.4999985 C312,12.984557 322.305355,7.9999985 330.5,7.9999985 L330.5,7.9999985 Z M93.5,23.0604255 C88.584795,23.0894015 86.5,26.175477 86.5,30 L86.5,40 C86.5,44.154126 90.071855,47 93.5,47 L114,47 C116.43069,47 120.5,45.354335 120.5,40 L120.5,30 C120.5,26.636714 118.450985,22.913336 114,22.9394371 L93.5,23.0604255 Z M86.5,8 L121,8 C131.95058,8 139,15.458178 139,24.5 L139,44.5 C139,58.682165 126.746865,62 121,62 L86.5,62 C73.541105,62 68.5,51.57346 68.5,44.5 L68.5,24.5 C68.5,12.9845585 78.305355,8 86.5,8 Z M65,8 L24.5,8 C12.8473525,8 8.026633,18.7187045 8,24.5 L8,44.5 C8,57.470635 18.6701565,62.07585 24.5,62 L65,62 L65,47 L33.5,47 C31.2941665,47 26,45.366549 26,40.5 L26,30 C26,24.998197 29.765369,23 33.5,23 L65,23 L65,8 Z" id="Shape"></path>
            </g>
            <g id="Group-9" transform="translate(390.000000, 0.000000)">
                <polygon id="Path" points="2.11538462 6.5 2.11538462 0.968085106 0 0.968085106 0 0 5.5 0 5.5 0.968085106 3.1025641 0.968085106 3.1025641 6.5"></polygon>
                <polygon id="Path" points="6.5 6.5 6.5 3.07082964e-16 8.15957447 3.07082964e-16 9.81914894 5.25531915 11.4787234 0 13 0 13 6.5 12.0319149 6.5 12.0319149 0.968085106 10.3723404 6.5 9.40425532 6.5 7.60638298 0.968085106 7.60638298 6.5"></polygon>
            </g>
        </g>
    </g>
</svg>
